resources/icons/20px/soccer-ball.svg

<svg width="20" height="20" viewBox="0 0 20 20" fill="none" xmlns="http://www.w3.org/2000/svg">
<path fill-rule="evenodd" clip-rule="evenodd" d="M9.5 19C14.7467 19 19 14.7467 19 9.5C19 4.25329 14.7467 0 9.5 0C4.25329 0 0 4.25329 0 9.5C0 14.7467 4.25329 19 9.5 19ZM9.5 17C10.3788 17 11.2223 16.8488 12.006 16.5711L12.6501 14.5888L11.4983 13.0036H7.67371L6.52194 14.5888L7.18732 16.6367C7.91576 16.8725 8.69299 17 9.5 17ZM3.50023 14.001H5.71292L6.93152 12.3238L5.89351 9.0772L3.55749 8.31819L2.00017 9.44965L2 9.5C2 11.1889 2.55823 12.7474 3.50023 14.001ZM17 9.5C17 11.1889 16.4418 12.7474 15.4998 14.001H13.4591L12.121 12.1594L13.0965 9.10847L15.5287 8.31819L16.9992 9.38651C16.9997 9.42427 17 9.4621 17 9.5ZM3.22453 5.39132L3.86651 7.36713L6.16344 8.11345L8.99578 6.02219V4.13673L6.76351 2.51489C5.30645 3.08615 4.07161 4.10013 3.22453 5.39132ZM15.2197 7.36713L15.8328 5.48013C14.9836 4.145 13.7237 3.09661 12.231 2.51274L9.99578 4.13673V6.01596L12.8629 8.1329L15.2197 7.36713Z" fill="black"/>
</svg>

<svg xmlns="http://www.w3.org/2000/svg" viewBox="0 0 20 20">
  <path d="M9.5 19a9.5 9.5 0 1 0 0-19 9.5 9.5 0 0 0 0 19m0-2c.879 0 1.722-.151 2.506-.429l.644-1.982-1.152-1.585H7.674l-1.152 1.585.665 2.048A7.5 7.5 0 0 0 9.5 17m-6-2.999h2.213l1.219-1.677-1.038-3.247-2.337-.759L2 9.45v.05c0 1.689.558 3.247 1.5 4.501M17 9.5a7.47 7.47 0 0 1-1.5 4.501h-2.04l-1.339-1.842.976-3.05 2.432-.79 1.47 1.068zM3.225 5.391l.642 1.976 2.296.746 2.833-2.09V4.136L6.764 2.515a7.53 7.53 0 0 0-3.54 2.876M15.22 7.367l.613-1.887a7.53 7.53 0 0 0-3.602-2.967L9.996 4.137v1.879l2.867 2.117z"/>
</svg>
